X:1
T:Sonata K.208 in A
T:Sonata K.208 in A
T:Scarlatti
C:Scarlatti
%%score ( 1 2 )
L:1/8
M:4/4
K:A
V:1 treble-8 nm="Classical Guitar" snm="Guit."
V:2 treble-8 
V:1
 !2!A/G/A/B/ !3!c/B/c/d/ !4!fe- e"^CII"{/!4!e}!2!d/c/ | %1
 !1!^A/!1!B/!4!f- f/{/f}e/!4!d- d/{/!4!d}!3!c/B- B=A | A/4G/4A/4G/4 e2 c G/A/G/A/ ^D/E/D/E/ | %3
 F/F/4G/4A/G/ B/B/4c/4d/c/ !2!a/g/4a/4b/a/ P!1!g/!1!f/{/f}!0!e/!fermata!!2!d/ | %4
 c/4B/4A3/2 z P!2/4
!c- c^d- d{/!2!f}e/!2!c/ | %5
 !2!^A/B/^d- de/c/ !1!G/4!3!=A/4G/4A/4^d- d!4!e/!1!c/- | %6
 c/"^V"!3!A/{/A}c- c(3!1!a/!1!e/!2!c/"^IV" !2!e/^d/4e/4f/e/ d/!4!c/P!1/4
!B/!4!A/ | %7
 !3!G/4F/4E3/2 z e- e/!1!=c/{/=c}!2!E- Ee- | e/B/{/B}!2!E- Ee- e/=c/{/=c}!4!F- Fe- | %9
 e/!3!^c/{/c}!4!F- Fe- e/!3!^d/!4!g/!1!f/- f/!4!d/!3!B/!1!A/- | %10
 A/!1!G/4!1!A/4!4!e/!4!^d/- d/!2!c/P!2/0
!B/!3!A/- A/!1!G/F/E/ G/4F/4G/4F/4G/4F/4E/4F/4 | %11
 !1!E/!3!B/PA/!4!G/- G/!1!A/!4!G/A/- A/!3!c/P!1!B/!4!^A/- A/!1!B/!4!A/!fermata!B/ | %12
 !2!a/!1!g/!4!f/!2!e/ !1!^B/4!3!c/4B/4c/4!2!e/E/ !1!G2 !1!G/4!4!F/4G/4F/4G/4F/4E/4F/4 | E8 :: %14
 z2 !3!B2 B2- B{/!4!d}!2!c/d/ | %15
 B!4!b- b/a/Pg/f/- f/!3!^e/4!4!f/4!1!g/!4!d/- d/!3!c/P!3/4
!c/!0!B/- | %16
 B/^A/c/e/ =g/=G/c/e/ !4!g/G/!3!c/!0!e/ g/G/!3!c/4B/4c/4!0!e/4 | %17
 !4!=g/=G/c/e/ g/=f/{/g}f/e/ d/!3!=F/!2!A/!4!d/ f/e/{/=f}e/d/ | %18
 !4!d/!3!=F/!0!B/d/ !1!=f/e/e/d/ =G/!1!c/4!2!d/4!4!e/!2!=g/- g/!1!f/{/!2!g}!1
!f/e/ | %19
 !4!g/!4!a/!1!=f/4!0!e/4!3
!d/- d/=c/c/B/"^IV" !1!g/a/B/c/- c/^d/4!2!e/4!4!^f/!3!A/- | %20
"^IV" A/!1!^F/!3!G/!4!A/ !1!B/!3!^c/c/!4!d/- d/!1!B/!3!c/4B/4c/4!4!d/4 d/!1!^d/d/!4!e/- | %21
 e/!4!e/4!1!c/4!2!d/!0!e/ e/^e/e/!-(!!2!f/ !-)!!4!d'/!3!c'/P!1!b/!4!a/ !1!f/!1!b/!3!g/!1!d/ | %22
 [CA]!4!B/4!2!A/4!1!G/4A/8B/8 !1!c/4!4!B/4c/4B/4c/4B/4!2!A/4!1!G/4 !1!A/!4!e/d/c/- c/d/c/d/- | %23
 d/!4!f/P!2/4
!e/!1!^d/- d/e/d/e/- e/!4!d'/(!4!d'/4!3!c'/4)!1!b/4!4!a/4"_Rall." !1!^e/4!2!f/4e/4f/4!3!b/a/ | %24
"_A Tempo\n" [CA]!4!B/4A/4G/4A/8B/8 !1!c/4!4!B/4c/4B/4c/4B/4A/4!1!G/4 !fermata!!4!G2 A/4G/4A3/2 |] %25
V:2
 A,2 A,2 A,2 A,2 | D2 D2 D2 D2 | D2 !4![CA]2 !4!C2 C2 | !2!D2 D2 !0![E,B]2 [E,B]2 | %4
 A,2 A,2 A,2 [A,E]2 | !3![G,E]2 [G,E]2 !2!F,2 !1![F,A]2 | !0!E,2 E2 !3!^D2 D2 | %7
 E,2 E,2 !3!!4![=CB]2 =C2 | !3![=G,=G]2 G,2 !2![A,E]2 A,2 | !1!!2![^A,E]2 A,2 !1!!2![B,F]2 [B,F]2 | %10
 E,2 A,2 !2!B,2 B,2 | !2!C2 C2 !2!^D2 D2 | [E,B]2 A,2 [B,E]2 !2!B,2 | E,8 :: !1!B,2 B2 =G2 !1!E2 | %15
 D2 [DB]2 !1!C2 C2 | !3!!courtesy!^C2 C2 !2!B,2 B,2 | A,2 A,2 A,2 A,2 | %18
 !2!B,2 !2!!1![B,^G]2 !3!C2 [C=G]2 | D2 !2![DA]2 !3!^D2 D2 | E,2 E,2 A,2 A,2 | D2 D2 D2 D2 | %22
 E,2 E,2 F,2 F,2 | G,2 G,2 A,2 D2 | E,2 E,2 A,4 |] %25

